src/icons/svg/purchaseCoinRecord.svg

<?xml version="1.0" encoding="UTF-8"?>
<svg width="22px" height="22px" viewBox="0 0 22 22" version="1.1" xmlns="http://www.w3.org/2000/svg" xmlns:xlink="http://www.w3.org/1999/xlink">
    <!-- Generator: Sketch 55.2 (78181) - https://sketchapp.com -->
    <title>买币记录icon@1x</title>
    <desc>Created with Sketch.</desc>
    <g id="页面1" stroke="none" stroke-width="1" fill="none" fill-rule="evenodd">
        <g id="M端-买币1" transform="translate(-335.000000, -80.000000)" fill="#FFFFFF">
            <g id="tab" transform="translate(0.000000, 50.000000)">
                <g id="买币记录icon" transform="translate(335.000000, 30.000000)">
                    <path d="M2,20 L2,2 C2,0.8954305 2.8954305,2.02906125e-16 4,0 L12,0 C12.5522847,-1.01453063e-16 13,0.44771525 13,1 C13,1.55228475 12.5522847,2 12,2 L5,2 C4.44771525,2 4,2.44771525 4,3 L4,19 C4,19.5522847 4.44771525,20 5,20 L17,20 C17.5522847,20 18,19.5522847 18,19 L18,8 C18,7.44771525 18.4477153,7 19,7 C19.5522847,7 20,7.44771525 20,8 L20,20 C20,21.1045695 19.1045695,22 18,22 L4,22 C2.8954305,22 2,21.1045695 2,20 Z" id="Fill-1"></path>
                    <path d="M7,13 L15,13 C15.5522847,13 16,12.5522847 16,12 C16,11.4477153 15.5522847,11 15,11 L7,11 C6.44771525,11 6,11.4477153 6,12 C6,12.5522847 6.44771525,13 7,13 Z" id="Fill-4"></path>
                    <path d="M7,18 L15,18 C15.5522847,18 16,17.5522847 16,17 C16,16.4477153 15.5522847,16 15,16 L7,16 C6.44771525,16 6,16.4477153 6,17 C6,17.5522847 6.44771525,18 7,18 Z" id="Fill-4备份"></path>
                    <path d="M13,7 L16,7 L13,4 L13,7 Z M11,7 L11,1.01421356 C11,0.461928813 11.4477153,0.0142135624 12,0.0142135624 C12.2652165,0.0142135624 12.5195704,0.119570403 12.7071068,0.307106781 L19.6928932,7.29289322 C20.0834175,7.68341751 20.0834175,8.31658249 19.6928932,8.70710678 C19.5053568,8.89464316 19.2510029,9 18.9857864,9 L13,9 C11.8954305,9 11,8.1045695 11,7 Z" id="Fill-7"></path>
                </g>
            </g>
        </g>
    </g>
</svg>

<svg width="22" height="22" xmlns="http://www.w3.org/2000/svg"><g fill="#FFF" fill-rule="evenodd"><path d="M2 20V2a2 2 0 012-2h8a1 1 0 010 2H5a1 1 0 00-1 1v16a1 1 0 001 1h12a1 1 0 001-1V8a1 1 0 012 0v12a2 2 0 01-2 2H4a2 2 0 01-2-2z"/><path d="M7 13h8a1 1 0 000-2H7a1 1 0 000 2zm0 5h8a1 1 0 000-2H7a1 1 0 000 2zm6-11h3l-3-3v3zm-2 0V1.014a1 1 0 011.707-.707l6.986 6.986A1 1 0 0118.986 9H13a2 2 0 01-2-2z"/></g></svg>
